svgs/opera_mini.svg

<svg width="192" height="192" viewBox="0 0 192 192" fill="none" xmlns="http://www.w3.org/2000/svg">
<g clip-path="url(#clip0_53_41)">
<path d="M106 122C106 113.163 113.163 106 122 106H154C162.837 106 170 113.163 170 122V154C170 162.837 162.837 170 154 170H122C113.163 170 106 162.837 106 154V122Z" stroke="black" stroke-width="12"/>
<path fill-rule="evenodd" clip-rule="evenodd" d="M28 96C28 58.4446 58.4446 28 96 28C97.5062 28 99.0009 28.049 100.483 28.1454C75.8149 35.369 57.8232 59.9857 55.3032 88.993C55.1027 91.2938 55 93.6326 55 96C55 96.4731 55.0041 96.945 55.0123 97.4157C55.045 99.3005 55.1428 101.166 55.3032 103.007C57.4503 127.722 70.8294 149.25 90 159.548V139.999C84.9883 138.311 80.2023 134.502 76.1983 128.667C70.6342 120.56 67 109.028 67 96C67 82.9717 70.6342 71.4403 76.1983 63.3326C81.7812 55.1975 88.8846 51 96 51C103.115 51 110.219 55.1975 115.802 63.3326C120.495 70.1713 123.815 79.4459 124.739 90H136.778C135.826 77.1933 131.85 65.5101 125.696 56.5425C120.07 48.3443 112.355 42.1038 103.299 39.8819C107.225 38.6512 111.319 38 115.5 38C132.942 38 148.873 49.3345 157.428 66.7974C160.835 73.9519 163.029 81.7956 163.744 90.0624C168.293 90.3891 172.491 91.9833 175.986 94.4938C175.983 94.3074 175.979 94.1212 175.974 93.9352C174.879 50.7067 139.492 16 96 16C51.8172 16 16 51.8172 16 96C16 139.68 51.0061 175.183 94.4938 175.986C91.9833 172.491 90.3891 168.293 90.0624 163.744C55.2875 160.736 28 131.555 28 96Z" fill="black"/>
<path d="M125 149V133.111C125 131.074 126.3 127 131.5 127C136.7 127 138 131.074 138 133.111M138 133.111V149M138 133.111C138 131.074 139.3 127 144.5 127C149.7 127 151 131.074 151 133.111V149" stroke="black" stroke-width="8" stroke-linecap="round" stroke-linejoin="round"/>
</g>
<defs>
<clipPath id="clip0_53_41">
<rect width="192" height="192" fill="white"/>
</clipPath>
</defs>
</svg>

<svg width="192" height="192" viewBox="0 0 192 192" fill="none" xmlns="http://www.w3.org/2000/svg"><g clip-path="url(#a)"><path d="M106 122c0-8.837 7.163-16 16-16h32c8.837 0 16 7.163 16 16v32c0 8.837-7.163 16-16 16h-32c-8.837 0-16-7.163-16-16v-32Z" stroke="#000" stroke-width="12"/><path fill-rule="evenodd" clip-rule="evenodd" d="M28 96c0-37.555 30.445-68 68-68 1.506 0 3 .049 4.483.145-24.668 7.224-42.66 31.84-45.18 60.848a80.73 80.73 0 0 0-.29 8.423c.032 1.885.13 3.75.29 5.591C57.45 127.722 70.83 149.25 90 159.548v-19.549c-5.012-1.688-9.798-5.497-13.802-11.332C70.634 120.56 67 109.028 67 96c0-13.028 3.634-24.56 9.198-32.667C81.781 55.197 88.885 51 96 51s14.219 4.197 19.802 12.333c4.693 6.838 8.013 16.113 8.937 26.667h12.039c-.952-12.807-4.928-24.49-11.082-33.458-5.626-8.198-13.341-14.438-22.397-16.66A40.708 40.708 0 0 1 115.5 38c17.442 0 33.373 11.334 41.928 28.797a67.578 67.578 0 0 1 6.316 23.265 23.871 23.871 0 0 1 12.242 4.432 51.82 51.82 0 0 0-.012-.559C174.879 50.707 139.492 16 96 16c-44.183 0-80 35.817-80 80 0 43.68 35.006 79.183 78.494 79.986a23.871 23.871 0 0 1-4.432-12.242C55.288 160.736 28 131.555 28 96Z" fill="#000"/><path d="M125 149v-15.889c0-2.037 1.3-6.111 6.5-6.111s6.5 4.074 6.5 6.111m0 0V149m0-15.889c0-2.037 1.3-6.111 6.5-6.111s6.5 4.074 6.5 6.111V149" stroke="#000" stroke-width="8" stroke-linecap="round" stroke-linejoin="round"/></g><defs><clipPath id="a"><path fill="#fff" d="M0 0h192v192H0z"/></clipPath></defs></svg>
